src/icons/solid/square-sliders-vertical.svg

<svg xmlns="http://www.w3.org/2000/svg" viewBox="0 0 448 512"><!--! Font Awesome Pro 6.7.2 by @fontawesome - https://fontawesome.com License - https://fontawesome.com/license (Commercial License) Copyright 2024 Fonticons, Inc. --><path d="M0 96C0 60.7 28.7 32 64 32l320 0c35.3 0 64 28.7 64 64l0 320c0 35.3-28.7 64-64 64L64 480c-35.3 0-64-28.7-64-64L0 96zm144 0c-17.7 0-32 14.3-32 32l0 32-16 0c-17.7 0-32 14.3-32 32s14.3 32 32 32l16 0 0 160c0 17.7 14.3 32 32 32s32-14.3 32-32l0-160 16 0c17.7 0 32-14.3 32-32s-14.3-32-32-32l-16 0 0-32c0-17.7-14.3-32-32-32zm192 32c0-17.7-14.3-32-32-32s-32 14.3-32 32l0 160-16 0c-17.7 0-32 14.3-32 32s14.3 32 32 32l16 0 0 32c0 17.7 14.3 32 32 32s32-14.3 32-32l0-32 16 0c17.7 0 32-14.3 32-32s-14.3-32-32-32l-16 0 0-160z"/></svg>

<svg xmlns="http://www.w3.org/2000/svg" viewBox="0 0 448 512"><!--! Font Awesome Pro 6.5.2 by @fontawesome - https://fontawesome.com License - https://fontawesome.com/license (Commercial License) Copyright 2024 Fonticons, Inc. --><path d="M0 96C0 60.7 28.7 32 64 32H384c35.3 0 64 28.7 64 64V416c0 35.3-28.7 64-64 64H64c-35.3 0-64-28.7-64-64V96zm144 0c-17.7 0-32 14.3-32 32v32H96c-17.7 0-32 14.3-32 32s14.3 32 32 32h16V384c0 17.7 14.3 32 32 32s32-14.3 32-32V224h16c17.7 0 32-14.3 32-32s-14.3-32-32-32H176V128c0-17.7-14.3-32-32-32zm192 32c0-17.7-14.3-32-32-32s-32 14.3-32 32V288H256c-17.7 0-32 14.3-32 32s14.3 32 32 32h16v32c0 17.7 14.3 32 32 32s32-14.3 32-32V352h16c17.7 0 32-14.3 32-32s-14.3-32-32-32H336V128z"/></svg>
